X: 711
T:71. SPOKES'S TUNES (32 bar jigs)
T:Champion, The
M:6/8
K:C
|:"Am"EAB cBA|"Am"eAB cBA|"E"B^GE B^GE|"Em"efe dcB|\
"Am"EAB cBA|"Am"eAB cBA|"Em"efe e2d|"Am"cAA A3::
"C"G3 "F"F3|"C"EGc ecG|"F"FGB "G"dBG|"C"EGc "Am"ecA|\
"C"G3 "F"F3|"C"EGc ecG|"F"FGB "G"dBG|"C"cGe c3:|
